icons/Communication/chat-history-line.svg

<svg viewBox="0 0 24 24" xmlns="http://www.w3.org/2000/svg"><path d="M12 2C17.5228 2 22 6.47715 22 12C22 17.5228 17.5228 22 12 22C10.298 22 8.69525 21.5748 7.29229 20.8248L2 22L3.17629 16.7097C2.42562 15.3063 2 13.7028 2 12C2 6.47715 6.47715 2 12 2ZM12 4C7.58172 4 4 7.58172 4 12C4 13.3347 4.32563 14.6181 4.93987 15.7664L5.28952 16.4201L4.63445 19.3663L7.58189 18.7118L8.23518 19.061C9.38315 19.6747 10.6659 20 12 20C16.4183 20 20 16.4183 20 12C20 7.58172 16.4183 4 12 4ZM13 7V12H17V14H11V7H13Z"/></svg>

<svg xmlns="http://www.w3.org/2000/svg" viewBox="0 0 24 24">
    <g>
        <path fill="none" d="M0 0L24 0 24 24 0 24z"/>
        <path d="M12 2c5.523 0 10 4.477 10 10s-4.477 10-10 10c-1.702 0-3.305-.425-4.708-1.175L2 22l1.176-5.29C2.426 15.306 2 13.703 2 12 2 6.477 6.477 2 12 2zm0 2c-4.418 0-8 3.582-8 8 0 1.335.326 2.618.94 3.766l.35.654-.656 2.946 2.948-.654.653.349c1.148.614 2.43.939 3.765.939 4.418 0 8-3.582 8-8s-3.582-8-8-8zm1 3v5h4v2h-6V7h2z"/>
    </g>
</svg>
